X: 31702
T: Passport Ljubljana
R: jig
M: 6/8
K: Aminor
M:5/8
|:DEE DE|B,CC CB,|A,B,C DF|EFD E2|DEE DE|B,CC CB,|A,FD CB,|C3 C2:|
|:DEG Gc|c2 A AG|DEG DF|FED DE|EGG ^GE|ABc AG|FED CB,|C3 C2:|

